lib/preview/nrk-logo-preview-nrk-p1-pluss-title-below.svg

<svg width="35" height="31" viewBox="0 0 35 31" fill="none" xmlns="http://www.w3.org/2000/svg">
<path d="M0 12.9967V0.997825H3.93719V12.9967H0ZM9.29381 2.90751L11.5581 12.9967H7.24917L4.54549 0.997825H6.96218C7.51635 0.990632 8.05406 1.18598 8.4745 1.54712C8.89562 1.89312 9.18495 2.37343 9.29381 2.90751ZM12.1495 12.9967V0.997825H16.0867V12.9967H12.1495ZM19.0605 5.56083C18.6362 5.56497 18.2188 5.45396 17.8525 5.2397C17.4912 5.03085 17.1911 4.73069 16.9823 4.36933C16.7678 4.00307 16.6568 3.5855 16.661 3.16105C16.6561 2.7392 16.7672 2.32411 16.9823 1.96116C17.1933 1.60372 17.4931 1.30683 17.8525 1.09925C18.2189 0.885237 18.6362 0.774249 19.0605 0.778119C19.4822 0.773577 19.8971 0.884663 20.2602 1.09925C20.616 1.30865 20.9127 1.6053 21.122 1.96116C21.3368 2.32422 21.4479 2.73923 21.4433 3.16105C21.4473 3.58546 21.3363 4.00296 21.122 4.36933C20.9149 4.72911 20.6179 5.02902 20.2602 5.2397C19.8971 5.45471 19.4819 5.56583 19.0599 5.56083H19.0605ZM22.0516 12.9967V0.997825H25.9892V12.9967H22.0516ZM30.9737 7.55497C30.9848 7.56661 31.0693 7.70462 31.2272 7.96901C31.3851 8.2334 31.5906 8.57142 31.8439 8.98302C32.0974 9.39444 32.3649 9.83099 32.6463 10.2927C32.9278 10.7545 33.1926 11.1911 33.4408 11.6025C33.6881 12.0139 33.9697 12.4787 34.2857 12.9967H29.9598C29.6893 12.5573 29.4441 12.1602 29.2245 11.8053C29.0048 11.4504 28.7713 11.0673 28.5238 10.6561C28.2758 10.2452 28.0306 9.84527 27.7882 9.4562C27.5458 9.06713 27.3375 8.72635 27.1633 8.43379C26.9883 8.14105 26.8671 7.94386 26.7997 7.84227C26.6325 7.59018 26.5336 7.29903 26.5127 6.99728C26.5294 6.70767 26.6226 6.42771 26.7828 6.18585C26.8504 6.07318 26.9743 5.87316 27.1545 5.58587C27.3348 5.29857 27.546 4.95779 27.7882 4.56346C28.0304 4.16913 28.2756 3.76634 28.5238 3.35511C28.772 2.94388 29.0056 2.55797 29.2245 2.19744C29.4445 1.83729 29.6897 1.43732 29.9598 0.99755H34.2857L30.9396 6.45623C30.8361 6.6183 30.7777 6.80508 30.7706 6.99728C30.7818 7.19906 30.8522 7.39305 30.9731 7.55497H30.9737Z" fill="white"/>
<path d="M8.13475 19.6947C7.92731 19.3742 7.66099 19.0961 7.34996 18.8751C7.00328 18.632 6.61814 18.4492 6.21075 18.3343C5.71624 18.1976 5.2048 18.1323 4.69185 18.1402H0V30.1391H1.7721V25.8296H4.82686C5.51634 25.8402 6.19675 25.6713 6.80148 25.3395C7.38104 25.0182 7.86233 24.545 8.19381 23.9706C8.54913 23.3369 8.72699 22.6188 8.70858 21.8922C8.71006 21.4995 8.66474 21.1079 8.57357 20.7259C8.48582 20.36 8.33748 20.0115 8.13475 19.6947ZM6.56517 23.3366C6.33826 23.693 6.00447 23.9682 5.61165 24.1227C5.13477 24.3033 4.62741 24.3893 4.11775 24.3762H1.7721V19.6105H4.35433C4.84756 19.5918 5.33842 19.6872 5.78883 19.8894C6.14712 20.0628 6.44005 20.3473 6.62423 20.7005C6.81928 21.0969 6.91486 21.5348 6.9027 21.9765C6.92204 22.4528 6.80494 22.9248 6.56517 23.3366Z" fill="white"/>
<path d="M12.3115 18.5373C12.0696 18.6669 11.8334 18.7879 11.6029 18.9004C11.3725 19.0129 11.139 19.1255 10.9025 19.2384C10.6662 19.3511 10.4244 19.4528 10.1769 19.5426C9.92933 19.6325 9.66463 19.7232 9.38335 19.813L9.75494 21.2495C10.0925 21.1481 10.399 21.0467 10.6745 20.9453C10.9445 20.8465 11.2093 20.7336 11.4676 20.6073C11.7212 20.4837 11.9743 20.3486 12.2271 20.202L12.2355 20.1969V30.1396H13.9905V18.1408H13.0794C12.8092 18.2754 12.5532 18.4076 12.3115 18.5373Z" fill="white"/>
<path d="M20.8597 23.4803V20.0668H19.3745V23.4803H15.9485V24.8154H19.3745V28.2125H20.8597V24.8154H24.2857V23.4803H20.8597Z" fill="white"/>
</svg>

<svg xmlns="http://www.w3.org/2000/svg" viewBox="0 0 35 31"><path fill="#fff" d="M0 12.997v-12h3.937v12H0Zm9.294-10.09 2.264 10.09H7.25l-2.704-12h2.417a2.276 2.276 0 0 1 1.513.55c.42.346.71.826.819 1.36Zm2.855 10.09v-12h3.938v12h-3.938Zm6.912-7.436a2.382 2.382 0 0 1-2.4-2.4 2.301 2.301 0 0 1 .321-1.2A2.41 2.41 0 0 1 20.26 1.1c.356.21.653.506.862.862.215.363.326.778.321 1.2a2.35 2.35 0 0 1-.321 1.208 2.4 2.4 0 0 1-.862.87 2.302 2.302 0 0 1-1.2.322Zm2.99 7.436v-12h3.938v12h-3.937Zm8.923-5.442c.01.012.095.15.253.414s.364.602.617 1.014a316.545 316.545 0 0 1 1.597 2.62c.247.41.529.876.845 1.394H29.96c-.27-.44-.516-.837-.736-1.192-.22-.355-.453-.738-.7-1.149a99.5 99.5 0 0 0-.736-1.2c-.242-.389-.45-.73-.625-1.022-.175-.293-.296-.49-.363-.592a1.747 1.747 0 0 1-.287-.845c.016-.29.11-.57.27-.811.067-.113.191-.313.371-.6s.392-.628.634-1.023c.242-.394.488-.797.736-1.208l.7-1.158.736-1.2h4.326l-3.346 5.46a1.08 1.08 0 0 0-.17.54c.012.202.082.396.203.558ZM8.135 19.695a3.015 3.015 0 0 0-.785-.82 3.764 3.764 0 0 0-1.14-.54 5.389 5.389 0 0 0-1.518-.195H0v12h1.772v-4.31h3.055c.69.01 1.37-.159 1.974-.49a3.652 3.652 0 0 0 1.393-1.37 4.04 4.04 0 0 0 .515-2.078 4.944 4.944 0 0 0-.135-1.166 3.372 3.372 0 0 0-.44-1.031Zm-1.57 3.642c-.227.356-.56.631-.953.786-.477.18-.985.266-1.494.253H1.772V19.61h2.582c.494-.018.984.077 1.435.28.358.173.651.457.835.81.195.397.29.835.279 1.277.019.476-.098.948-.338 1.36ZM12.312 18.537c-.242.13-.479.25-.71.363-.23.113-.463.226-.7.338a8.113 8.113 0 0 1-.725.305c-.248.09-.512.18-.794.27l.372 1.437c.337-.102.644-.203.92-.305.27-.099.534-.211.793-.338.253-.123.506-.258.76-.405l.008-.005v9.943h1.755v-12h-.912c-.27.135-.526.268-.768.397ZM20.86 23.48v-3.413h-1.485v3.413h-3.427v1.335h3.427v3.397h1.485v-3.397h3.426V23.48H20.86Z"/></svg>
